app/images/participant-modal/middle-arrow.svg

<svg width="30" height="79" viewBox="0 0 30 79" fill="none" xmlns="http://www.w3.org/2000/svg">
<path d="M17 2C17 0.89543 16.1046 0 15 0C13.8954 0 13 0.89543 13 2H17ZM13.5858 78.4142C14.3668 79.1953 15.6332 79.1953 16.4142 78.4142L29.1421 65.6863C29.9232 64.9052 29.9232 63.6389 29.1421 62.8579C28.3611 62.0768 27.0948 62.0768 26.3137 62.8579L15 74.1716L3.68629 62.8579C2.90524 62.0768 1.63891 62.0768 0.857864 62.8579C0.0768156 63.6389 0.0768156 64.9052 0.857864 65.6863L13.5858 78.4142ZM13 2V77H17V2H13Z" fill="#8347F7"/>
</svg>

<svg width="30" height="79" fill="none" xmlns="http://www.w3.org/2000/svg"><path d="M17 2a2 2 0 10-4 0h4zm-3.414 76.414a2 2 0 002.828 0l12.728-12.728a2 2 0 10-2.828-2.828L15 74.172 3.686 62.858a2 2 0 10-2.828 2.828l12.728 12.728zM13 2v75h4V2h-4z" fill="#8347F7"/></svg>
